Extension/assets/images/link_oval.svg

<svg width="24" height="24" viewBox="0 0 24 24" fill="none" xmlns="http://www.w3.org/2000/svg">
<path d="M18 11.8333V5.99998L12.2857 5.99998" stroke="#67B279" stroke-width="1.5" stroke-linecap="round" stroke-linejoin="round"/>
<path d="M17.9209 6.03908L11.1319 12.9695" stroke="#67B279" stroke-width="1.5" stroke-linecap="round" stroke-linejoin="round"/>
<path d="M8.76672 7H8C6.89543 7 6 7.89543 6 9V16C6 17.1046 6.89543 18 8 18H15C16.1046 18 17 17.1046 17 16V15.2961" stroke="#67B279" stroke-width="1.5" stroke-linecap="round" stroke-linejoin="round"/>
</svg>

<svg xmlns="http://www.w3.org/2000/svg" width="24" height="24" fill="none" viewBox="0 0 24 24"><path stroke="#67b279" stroke-linecap="round" stroke-linejoin="round" stroke-width="1.5" d="M18 11.833V6h-5.714M17.92 6.04l-6.788 6.93M8.767 7H8a2 2 0 0 0-2 2v7a2 2 0 0 0 2 2h7a2 2 0 0 0 2-2v-.704"/></svg>
